gama.ui.shared/icons_svg/dark/experiment/experiment.simulations.load.new.svg

<svg height="25" viewBox="-310.774 -3215.705 25 25" width="25" xmlns="http://www.w3.org/2000/svg"><g fill="none"><path d="m-290.11414-3215.205h-16.32c-2.12076 0-3.84 1.719-3.84 3.84v16.32c0 2.1207 1.71924 3.84 3.84 3.84h16.32c2.12078 0 3.84-1.7193 3.84-3.84v-16.32c0-2.121-1.71922-3.84-3.84-3.84z" fill="#666"/><path d="m-290.11414-3215.205h-16.32c-2.12076 0-3.84 1.719-3.84 3.84v16.32c0 2.1207 1.71924 3.84 3.84 3.84h16.32c2.12078 0 3.84-1.7193 3.84-3.84v-16.32c0-2.121-1.71922-3.84-3.84-3.84z" stroke="#fff" stroke-linecap="round" stroke-linejoin="round" stroke-width=".25"/><path d="m-310.27414-3215.205h24v24h-24z"/><path d="m-301.221-3197.2075h-2.5714v2.5715h-.85714v-2.5715h-2.57141v-.8571h2.57141v-2.5714h.85714v2.5714h2.5714z" fill="#f9b841"/><path d="m-301.221-3197.2075h-2.5714v2.5715h-.85714v-2.5715h-2.57141v-.8571h2.57141v-2.5714h.85714v2.5714h2.5714z" stroke="#cf7839" stroke-linecap="round" stroke-linejoin="round" stroke-width=".25"/><path d="m-296.29662-3194.636v-4.1523l2.08682 2.2508.63334-.6831-3.16666-3.4154-3.16668 3.4154.63334.6831 2.08684-2.2508v4.1523z" fill="#c0e0ff"/><path d="m-296.29662-3194.636v-4.1523l2.08682 2.2508.63334-.6831-3.16666-3.4154-3.16668 3.4154.63334.6831 2.08684-2.2508v4.1523z" stroke="#5a77a1" stroke-linecap="round" stroke-linejoin="round" stroke-width=".25"/><path d="m-298.12208-3205.323c-2.97425-.3585-4.59437-3.745-2.92692-6.2555 2.3855-3.5945 7.8262-1.5371 7.495 2.8395-.13036 1.7328-1.37094 2.6937-1.68004 4.2602-.72436 3.6681 3.86579 5.4302 5.91802 2.4233 1.39512-2.0448-.06834-4.9171-2.52428-5.0937-.31645-.0221-.87367.1419-.97144-.2692-.11039-.4636.40582-.492.72648-.4909 3.0552.0126 5.04646 3.3138 3.59876 6-2.0575 3.8195-7.924 2.2488-7.56443-2.2005.18819-2.3266 2.41703-3.5399 1.61593-6.122-.89155-2.8702-4.607-3.3369-6.08624-.7348-1.1691 2.0564.21342 4.6564 2.55897 4.8971-.16823-.3448-.51726-.6518-.69809-.9798-.22289-.4037.25652-.8474.64866-.4174.42686.4687.7738 1.0955 1.2143 1.5677.10936.1975.0568.4036-.06517.5823-.56667.3269-1.13123.9777-1.68635 1.2807-.31856.1733-.71912-.1116-.5488-.467.11775-.246.96932-.757.97775-.82z" fill="#c0e0ff"/></g></svg>

<?xml version="1.0" encoding="UTF-8" standalone="no"?>
<!DOCTYPE svg PUBLIC "-//W3C//DTD SVG 1.1//EN" "http://www.w3.org/Graphics/SVG/1.1/DTD/svg11.dtd">
<svg xmlns="http://www.w3.org/2000/svg" xmlns:xl="http://www.w3.org/1999/xlink" version="1.1" xmlns:dc="http://purl.org/dc/elements/1.1/" viewBox="-310.77414 -3215.705 25 25" width="25" height="25">
  <defs/>
  <g id="SOURCES" stroke-opacity="1" fill="none" stroke="none" fill-opacity="1" stroke-dasharray="none">
    <title>SOURCES</title>
    <g id="SOURCES_Dark">
      <title>Dark</title>
      <g id="Graphic_10894">
        <path d="M -290.11414 -3215.205 L -306.43414 -3215.205 C -308.5549 -3215.205 -310.27414 -3213.486 -310.27414 -3211.365 L -310.27414 -3195.045 C -310.27414 -3192.9243 -308.5549 -3191.205 -306.43414 -3191.205 L -290.11414 -3191.205 C -287.99336 -3191.205 -286.27414 -3192.9243 -286.27414 -3195.045 L -286.27414 -3211.365 C -286.27414 -3213.486 -287.99336 -3215.205 -290.11414 -3215.205 Z" fill="#666"/>
        <path d="M -290.11414 -3215.205 L -306.43414 -3215.205 C -308.5549 -3215.205 -310.27414 -3213.486 -310.27414 -3211.365 L -310.27414 -3195.045 C -310.27414 -3192.9243 -308.5549 -3191.205 -306.43414 -3191.205 L -290.11414 -3191.205 C -287.99336 -3191.205 -286.27414 -3192.9243 -286.27414 -3195.045 L -286.27414 -3211.365 C -286.27414 -3213.486 -287.99336 -3215.205 -290.11414 -3215.205 Z" stroke="white" stroke-linecap="round" stroke-linejoin="round" stroke-width=".25"/>
      </g>
      <g id="Graphic_10893">
        <rect x="-310.27414" y="-3215.205" width="24" height="24" stroke="gray" stroke-opacity="0" stroke-linecap="round" stroke-linejoin="round" stroke-width=".25"/>
      </g>
      <g id="Graphic_10892">
        <path d="M -301.221 -3197.2075 L -303.7924 -3197.2075 L -303.7924 -3194.636 L -304.64954 -3194.636 L -304.64954 -3197.2075 L -307.22095 -3197.2075 L -307.22095 -3198.0646 L -304.64954 -3198.0646 L -304.64954 -3200.636 L -303.7924 -3200.636 L -303.7924 -3198.0646 L -301.221 -3198.0646 L -301.221 -3197.2075 Z" fill="#f9b841"/>
        <path d="M -301.221 -3197.2075 L -303.7924 -3197.2075 L -303.7924 -3194.636 L -304.64954 -3194.636 L -304.64954 -3197.2075 L -307.22095 -3197.2075 L -307.22095 -3198.0646 L -304.64954 -3198.0646 L -304.64954 -3200.636 L -303.7924 -3200.636 L -303.7924 -3198.0646 L -301.221 -3198.0646 L -301.221 -3197.2075 Z" stroke="#cf7839" stroke-linecap="round" stroke-linejoin="round" stroke-width=".25"/>
      </g>
      <g id="Graphic_10891">
        <path d="M -296.29662 -3194.636 L -296.29662 -3198.7883 L -294.2098 -3196.5375 L -293.57646 -3197.2206 L -296.74312 -3200.636 L -299.9098 -3197.2206 L -299.27646 -3196.5375 L -297.18962 -3198.7883 L -297.18962 -3194.636 Z" fill="#c0e0ff"/>
        <path d="M -296.29662 -3194.636 L -296.29662 -3198.7883 L -294.2098 -3196.5375 L -293.57646 -3197.2206 L -296.74312 -3200.636 L -299.9098 -3197.2206 L -299.27646 -3196.5375 L -297.18962 -3198.7883 L -297.18962 -3194.636 Z" stroke="#5a77a1" stroke-linecap="round" stroke-linejoin="round" stroke-width=".25"/>
      </g>
      <g id="Graphic_10890">
        <path d="M -298.12208 -3205.323 C -301.09633 -3205.6815 -302.71645 -3209.068 -301.049 -3211.5785 C -298.6635 -3215.173 -293.2228 -3213.1156 -293.554 -3208.739 C -293.68436 -3207.0062 -294.92494 -3206.0453 -295.23404 -3204.4788 C -295.9584 -3200.8107 -291.36825 -3199.0486 -289.31602 -3202.0555 C -287.9209 -3204.1003 -289.38436 -3206.9726 -291.8403 -3207.1492 C -292.15675 -3207.1713 -292.71397 -3207.0073 -292.81174 -3207.4184 C -292.92213 -3207.882 -292.40592 -3207.9104 -292.08526 -3207.9093 C -289.03006 -3207.8967 -287.0388 -3204.5955 -288.4865 -3201.9093 C -290.544 -3198.0898 -296.4105 -3199.6605 -296.05093 -3204.1098 C -295.86274 -3206.4364 -293.6339 -3207.6497 -294.435 -3210.2318 C -295.32655 -3213.102 -299.042 -3213.5687 -300.52124 -3210.9666 C -301.69034 -3208.9102 -300.30782 -3206.3102 -297.96227 -3206.0695 C -298.1305 -3206.4143 -298.47953 -3206.7213 -298.66036 -3207.0493 C -298.88325 -3207.453 -298.40384 -3207.8967 -298.0117 -3207.4667 C -297.58484 -3206.998 -297.2379 -3206.3712 -296.7974 -3205.899 C -296.68804 -3205.7015 -296.7406 -3205.4954 -296.86257 -3205.3167 C -297.42924 -3204.9898 -297.9938 -3204.339 -298.54892 -3204.036 C -298.86748 -3203.8627 -299.26804 -3204.1476 -299.09772 -3204.503 C -298.97997 -3204.749 -298.1284 -3205.26 -298.11997 -3205.323 Z" fill="#c0e0ff"/>
      </g>
    </g>
  </g>
</svg>
